Numix-Light/16/status/indicator-keyboard-Gr-2.svg

<?xml version="1.0" encoding="UTF-8" standalone="no"?>
<svg
   xmlns:dc="http://purl.org/dc/elements/1.1/"
   xmlns:cc="http://creativecommons.org/ns#"
   xmlns:rdf="http://www.w3.org/1999/02/22-rdf-syntax-ns#"
   xmlns:svg="http://www.w3.org/2000/svg"
   xmlns="http://www.w3.org/2000/svg"
   xmlns:sodipodi="http://sodipodi.sourceforge.net/DTD/sodipodi-0.dtd"
   xmlns:inkscape="http://www.inkscape.org/namespaces/inkscape"
   viewBox="0 0 16 16"
   id="svg2"
   version="1.1"
   inkscape:version="0.91 r13725"
   sodipodi:docname="indicator-keyboard-Gr-2.svg">
  <metadata
     id="metadata14">
    <rdf:RDF>
      <cc:Work
         rdf:about="">
        <dc:format>image/svg+xml</dc:format>
        <dc:type
           rdf:resource="http://purl.org/dc/dcmitype/StillImage" />
      </cc:Work>
    </rdf:RDF>
  </metadata>
  <defs
     id="defs12" />
  <sodipodi:namedview
     pagecolor="#ffffff"
     bordercolor="#666666"
     borderopacity="1"
     objecttolerance="10"
     gridtolerance="10"
     guidetolerance="10"
     inkscape:pageopacity="0"
     inkscape:pageshadow="2"
     inkscape:window-width="459"
     inkscape:window-height="369"
     id="namedview10"
     showgrid="false"
     inkscape:zoom="14.75"
     inkscape:cx="8"
     inkscape:cy="8"
     inkscape:window-x="65"
     inkscape:window-y="24"
     inkscape:window-maximized="0"
     inkscape:current-layer="svg2" />
  <path
     style="fill:#353535;fill-opacity:1"
     d="M 1.5996094 0 C 0.71320937 2.9605947e-16 0 0.71320937 0 1.5996094 L 0 14.400391 C 2.9605947e-16 15.286791 0.71320937 16 1.5996094 16 L 14.400391 16 C 15.286791 16 16 15.286791 16 14.400391 L 16 1.5996094 C 16 0.71320937 15.286791 0 14.400391 0 L 1.5996094 0 z M 5.1679688 4.7246094 C 5.6299688 4.7246094 6.0105469 4.7749531 6.3105469 4.8769531 C 6.6105469 4.9729531 6.83075 5.06625 6.96875 5.15625 L 6.7617188 5.6777344 C 6.5937188 5.5577344 6.366125 5.462625 6.078125 5.390625 C 5.790125 5.312625 5.476625 5.2734375 5.140625 5.2734375 C 4.828625 5.2734375 4.5357656 5.3293594 4.2597656 5.4433594 C 3.9837656 5.5573594 3.7430625 5.7290313 3.5390625 5.9570312 C 3.3350625 6.1850312 3.1727344 6.4667344 3.0527344 6.8027344 C 2.9387344 7.1387344 2.8828125 7.5286563 2.8828125 7.9726562 C 2.8828125 8.3866563 2.9313437 8.7616563 3.0273438 9.0976562 C 3.1233438 9.4276563 3.2669844 9.713125 3.4589844 9.953125 C 3.6569844 10.187125 3.8995 10.366188 4.1875 10.492188 C 4.4755 10.618187 4.8075469 10.681641 5.1855469 10.681641 C 5.4915469 10.681641 5.7471719 10.666719 5.9511719 10.636719 C 6.1611719 10.600719 6.303 10.567109 6.375 10.537109 L 6.375 8.1445312 L 6.9863281 8.1445312 L 6.9863281 10.925781 C 6.8723281 10.973781 6.6465469 11.033469 6.3105469 11.105469 C 5.9805469 11.183469 5.5738906 11.222656 5.0878906 11.222656 C 4.6798906 11.222656 4.301125 11.149859 3.953125 11.005859 C 3.605125 10.861859 3.3029219 10.654766 3.0449219 10.384766 C 2.7929219 10.108765 2.5951719 9.7691875 2.4511719 9.3671875 C 2.3071719 8.9591875 2.234375 8.4946563 2.234375 7.9726562 C 2.234375 7.4506563 2.31275 6.9898906 2.46875 6.5878906 C 2.62475 6.1798906 2.8336562 5.8403125 3.0976562 5.5703125 C 3.3676562 5.2943125 3.6811563 5.0834531 4.0351562 4.9394531 C 4.3891562 4.7954531 4.7659688 4.7246094 5.1679688 4.7246094 z M 9.9589844 6.3535156 C 10.150984 6.3535156 10.330047 6.3684375 10.498047 6.3984375 C 10.672047 6.4284375 10.791422 6.4582812 10.857422 6.4882812 L 10.740234 6.9921875 C 10.692234 6.9681875 10.593359 6.9439219 10.443359 6.9199219 C 10.299359 6.8899219 10.109141 6.875 9.8691406 6.875 C 9.6171406 6.875 9.4118594 6.8936875 9.2558594 6.9296875 C 9.1058594 6.9656875 9.0069844 6.9955312 8.9589844 7.0195312 L 8.9589844 11.095703 L 8.375 11.095703 L 8.375 6.6582031 C 8.525 6.5922031 8.7320937 6.5269375 8.9960938 6.4609375 C 9.2600937 6.3889375 9.5809844 6.3535156 9.9589844 6.3535156 z M 12.4375 8.7539062 C 12.8314 8.7539062 13.127272 8.851875 13.326172 9.046875 C 13.525072 9.237975 13.625 9.5044563 13.625 9.8476562 C 13.625 9.9997563 13.597569 10.14475 13.542969 10.28125 C 13.488369 10.41385 13.413912 10.543169 13.320312 10.667969 C 13.230613 10.792769 13.128719 10.912297 13.011719 11.029297 C 12.894719 11.146297 12.775197 11.263859 12.654297 11.380859 C 12.552897 11.478359 12.452969 11.578288 12.355469 11.679688 C 12.261869 11.777188 12.175656 11.877116 12.097656 11.978516 C 12.023556 12.076016 11.964769 12.172031 11.917969 12.269531 C 11.875069 12.363131 11.853516 12.457181 11.853516 12.550781 L 11.853516 12.5625 L 13.765625 12.5625 L 13.765625 12.896484 L 11.431641 12.896484 C 11.431641 12.888684 11.429715 12.874969 11.425781 12.855469 L 11.425781 12.755859 C 11.425781 12.572559 11.459091 12.402094 11.525391 12.246094 C 11.591691 12.086194 11.675944 11.937275 11.777344 11.796875 C 11.882644 11.656475 11.996294 11.525197 12.121094 11.404297 C 12.249794 11.283397 12.373234 11.165834 12.490234 11.052734 C 12.587734 10.959134 12.679825 10.869003 12.765625 10.783203 C 12.855325 10.693503 12.9337 10.603366 13 10.509766 C 13.0663 10.416166 13.11725 10.316237 13.15625 10.210938 C 13.19525 10.105638 13.214844 9.9900344 13.214844 9.8652344 C 13.214844 9.5922344 13.142341 9.39825 12.994141 9.28125 C 12.849841 9.16035 12.665659 9.0996094 12.443359 9.0996094 C 12.318559 9.0996094 12.206875 9.1152844 12.109375 9.1464844 C 12.011875 9.1776844 11.927616 9.2149125 11.853516 9.2578125 C 11.783316 9.2968125 11.722575 9.3379594 11.671875 9.3808594 C 11.621175 9.4237594 11.583947 9.4570688 11.560547 9.4804688 L 11.361328 9.2167969 C 11.384728 9.1894969 11.425875 9.1503094 11.484375 9.0996094 C 11.546775 9.0450094 11.623191 8.9921062 11.712891 8.9414062 C 11.806491 8.8907063 11.912303 8.8476 12.033203 8.8125 C 12.154103 8.7735 12.2893 8.7539063 12.4375 8.7539062 z "
     id="path4" />
</svg>

<svg xmlns="http://www.w3.org/2000/svg" viewBox="0 0 16 16">
 <path d="m 1.6 0 c -0.886 0 -1.6 0.713 -1.6 1.6 l 0 12.801 c 0 0.886 0.713 1.6 1.6 1.6 l 12.801 0 c 0.886 0 1.6 -0.713 1.6 -1.6 l 0 -12.801 c 0 -0.886 -0.713 -1.6 -1.6 -1.6 l -12.801 0 z m 3.568 4.725 c 0.462 0 0.843 0.05 1.143 0.152 c 0.3 0.096 0.52 0.189 0.658 0.279 l -0.207 0.521 c -0.168 -0.12 -0.396 -0.215 -0.684 -0.287 c -0.288 -0.078 -0.601 -0.117 -0.938 -0.117 c -0.312 0 -0.605 0.056 -0.881 0.17 c -0.276 0.114 -0.517 0.286 -0.721 0.514 c -0.204 0.228 -0.366 0.51 -0.486 0.846 c -0.114 0.336 -0.17 0.726 -0.17 1.17 c 0 0.414 0.049 0.789 0.145 1.125 c 0.096 0.33 0.24 0.615 0.432 0.855 c 0.198 0.234 0.441 0.413 0.729 0.539 c 0.288 0.126 0.62 0.189 0.998 0.189 c 0.306 0 0.562 -0.015 0.766 -0.045 c 0.21 -0.036 0.352 -0.07 0.424 -0.1 l 0 -2.393 l 0.611 0 l 0 2.781 c -0.114 0.048 -0.34 0.108 -0.676 0.18 c -0.33 0.078 -0.737 0.117 -1.223 0.117 c -0.408 0 -0.787 -0.073 -1.135 -0.217 c -0.348 -0.144 -0.65 -0.351 -0.908 -0.621 c -0.252 -0.276 -0.45 -0.616 -0.594 -1.018 c -0.144 -0.408 -0.217 -0.873 -0.217 -1.395 c 0 -0.522 0.078 -0.983 0.234 -1.385 c 0.156 -0.408 0.365 -0.748 0.629 -1.018 c 0.27 -0.276 0.584 -0.487 0.938 -0.631 c 0.354 -0.144 0.731 -0.215 1.133 -0.215 z m 4.791 1.629 c 0.192 0 0.371 0.015 0.539 0.045 c 0.174 0.03 0.293 0.06 0.359 0.09 l -0.117 0.504 c -0.048 -0.024 -0.147 -0.048 -0.297 -0.072 c -0.144 -0.03 -0.334 -0.045 -0.574 -0.045 c -0.252 0 -0.457 0.019 -0.613 0.055 c -0.15 0.036 -0.249 0.066 -0.297 0.09 l 0 4.076 l -0.584 0 l 0 -4.437 c 0.15 -0.066 0.357 -0.131 0.621 -0.197 c 0.264 -0.072 0.585 -0.107 0.963 -0.107 z m 2.479 2.4 c 0.394 0 0.69 0.098 0.889 0.293 c 0.199 0.191 0.299 0.458 0.299 0.801 c 0 0.152 -0.027 0.297 -0.082 0.434 c -0.055 0.133 -0.129 0.262 -0.223 0.387 c -0.09 0.125 -0.192 0.244 -0.309 0.361 c -0.117 0.117 -0.237 0.235 -0.357 0.352 c -0.101 0.098 -0.201 0.197 -0.299 0.299 c -0.094 0.098 -0.18 0.197 -0.258 0.299 c -0.074 0.097 -0.133 0.194 -0.18 0.291 c -0.043 0.094 -0.064 0.188 -0.064 0.281 l 0 0.012 l 1.912 0 l 0 0.334 l -2.334 0 c 0 -0.008 -0.002 -0.022 -0.006 -0.041 l 0 -0.1 c 0 -0.183 0.033 -0.354 0.1 -0.51 c 0.066 -0.16 0.151 -0.309 0.252 -0.449 c 0.105 -0.14 0.219 -0.272 0.344 -0.393 c 0.129 -0.121 0.252 -0.238 0.369 -0.352 c 0.098 -0.094 0.19 -0.184 0.275 -0.27 c 0.09 -0.09 0.168 -0.18 0.234 -0.273 c 0.066 -0.094 0.117 -0.194 0.156 -0.299 c 0.039 -0.105 0.059 -0.221 0.059 -0.346 c 0 -0.273 -0.073 -0.467 -0.221 -0.584 c -0.144 -0.121 -0.328 -0.182 -0.551 -0.182 c -0.125 0 -0.236 0.016 -0.334 0.047 c -0.098 0.031 -0.182 0.068 -0.256 0.111 c -0.07 0.039 -0.131 0.08 -0.182 0.123 c -0.051 0.043 -0.088 0.076 -0.111 0.1 l -0.199 -0.264 c 0.023 -0.027 0.065 -0.066 0.123 -0.117 c 0.062 -0.055 0.139 -0.108 0.229 -0.158 c 0.094 -0.051 0.199 -0.094 0.32 -0.129 c 0.121 -0.039 0.256 -0.059 0.404 -0.059 z" style="fill:#353535;fill-opacity:1"/>
</svg>
